icons/assets/Group 621.svg

<svg width="76" height="76" viewBox="0 0 76 76" fill="none" xmlns="http://www.w3.org/2000/svg">
<g clip-path="url(#clip0_662_6366)">
<path opacity="0.5" d="M60.5 49L75.6554 75.25H45.3446L60.5 49Z" fill="#A8EFCF"/>
<path fill-rule="evenodd" clip-rule="evenodd" d="M12.6875 57.3125H63.75V19.6875H12.6875V57.3125ZM65.0938 60H11.3438C10.6007 60 10 59.3993 10 58.6562V18.3438C10 17.6007 10.6007 17 11.3438 17H65.0938C65.8369 17 66.4375 17.6007 66.4375 18.3438V58.6562C66.4375 59.3993 65.8369 60 65.0938 60Z" fill="#0A3B70"/>
<path fill-rule="evenodd" clip-rule="evenodd" d="M65.0938 31.7815H11.3438C10.6007 31.7815 10 31.1808 10 30.4377C10 29.6946 10.6007 29.094 11.3438 29.094H65.0938C65.8369 29.094 66.4375 29.6946 66.4375 30.4377C66.4375 31.1808 65.8369 31.7815 65.0938 31.7815Z" fill="#0A3B70"/>
<path fill-rule="evenodd" clip-rule="evenodd" d="M50.3125 60.0002C49.5694 60.0002 48.9688 59.3996 48.9688 58.6565V30.4377C48.9688 29.6947 49.5694 29.094 50.3125 29.094C51.0556 29.094 51.6563 29.6947 51.6563 30.4377V58.6565C51.6563 59.3996 51.0556 60.0002 50.3125 60.0002Z" fill="#0A3B70"/>
<path fill-rule="evenodd" clip-rule="evenodd" d="M21.4219 53.9532C20.6788 53.9532 20.0781 53.3525 20.0781 52.6094V41.3232C20.0781 40.5801 20.6788 39.9795 21.4219 39.9795C22.165 39.9795 22.7656 40.5801 22.7656 41.3232V52.6094C22.7656 53.3525 22.165 53.9532 21.4219 53.9532Z" fill="#0A3B70"/>
<path fill-rule="evenodd" clip-rule="evenodd" d="M27.6934 53.9534C26.9503 53.9534 26.3496 53.3527 26.3496 52.6096V36.4846C26.3496 35.7415 26.9503 35.1409 27.6934 35.1409C28.4365 35.1409 29.0371 35.7415 29.0371 36.4846V52.6096C29.0371 53.3527 28.4365 53.9534 27.6934 53.9534Z" fill="#0A3B70"/>
<path fill-rule="evenodd" clip-rule="evenodd" d="M40.2344 53.9532C39.4913 53.9532 38.8906 53.3525 38.8906 52.6094V41.3232C38.8906 40.5801 39.4913 39.9795 40.2344 39.9795C40.9775 39.9795 41.5781 40.5801 41.5781 41.3232V52.6094C41.5781 53.3525 40.9775 53.9532 40.2344 53.9532Z" fill="#0A3B70"/>
<path fill-rule="evenodd" clip-rule="evenodd" d="M33.9629 53.9532C33.2198 53.9532 32.6191 53.3525 32.6191 52.6094V46.1594C32.6191 45.4163 33.2198 44.8157 33.9629 44.8157C34.706 44.8157 35.3066 45.4163 35.3066 46.1594V52.6094C35.3066 53.3525 34.706 53.9532 33.9629 53.9532Z" fill="#0A3B70"/>
</g>
<defs>
<clipPath id="clip0_662_6366">
<rect width="76" height="76" fill="white"/>
</clipPath>
</defs>
</svg>

<?xml version="1.0" encoding="utf-8"?>
<!-- Generator: Adobe Illustrator 26.0.1, SVG Export Plug-In . SVG Version: 6.00 Build 0)  -->
<svg version="1.1" id="Layer_1" xmlns="http://www.w3.org/2000/svg" xmlns:xlink="http://www.w3.org/1999/xlink" x="0px" y="0px"
	 viewBox="0 0 76 76" style="enable-background:new 0 0 76 76;" xml:space="preserve">
<style type="text/css">
	.st0{opacity:0.5;fill:#A8EFCF;enable-background:new    ;}
	.st1{fill-rule:evenodd;clip-rule:evenodd;fill:#0A3B70;}
	.st2{fill:none;stroke:#0A3B70;stroke-width:3;stroke-linecap:round;stroke-miterlimit:10;}
</style>
<path class="st0" d="M60.5,49l15.2,26.2H45.3L60.5,49z"/>
<path class="st1" d="M12.7,57.3h51.1V19.7H12.7V57.3z M65.1,60H11.3c-0.7,0-1.3-0.6-1.3-1.3V18.3c0-0.7,0.6-1.3,1.3-1.3h53.8
	c0.7,0,1.3,0.6,1.3,1.3v40.3C66.4,59.4,65.8,60,65.1,60z"/>
<path class="st1" d="M65.1,31.8H11.3c-0.7,0-1.3-0.6-1.3-1.3c0-0.7,0.6-1.3,1.3-1.3h53.8c0.7,0,1.3,0.6,1.3,1.3
	C66.4,31.2,65.8,31.8,65.1,31.8z"/>
<path class="st1" d="M50.3,60c-0.7,0-1.3-0.6-1.3-1.3V30.4c0-0.7,0.6-1.3,1.3-1.3s1.3,0.6,1.3,1.3v28.2C51.7,59.4,51.1,60,50.3,60z"
	/>
<line class="st2" x1="21.4" y1="52.9" x2="21.4" y2="40.5"/>
<line class="st2" x1="27.7" y1="52.9" x2="27.7" y2="36.1"/>
<line class="st2" x1="34" y1="52.9" x2="34" y2="44.8"/>
<line class="st2" x1="40.2" y1="52.9" x2="40.2" y2="40.5"/>
</svg>
